!!!!SEGMENT: pl-stab--5a--001-009_dankowski-adalbert--vespere-ex-c-de-confessoribus-quia-fecit.krn
!!!cenid: 18xx:3507
!!!COM: Dankowski, Adalbert
!!!COM-rismid: pe30000793
!!!CDT: ~1760-~1836
!!!CNT: Polish
!!!OPR: Vespere ex C de Confessoribus
!!!OTL: Quia fecit
!!!OMV: 009
!!!PDT:
!!!AGN: Sacred; Vespers
!!!SMS-siglum: PL-STAb
!!!SMS-shelfmark: 5a
!!!SMS-shelfwork: 001-009 M
!!!SMS-variant:
!!!SMS-altvar:
!!!NIFC-rismid: 301050557
!!!URL-scan: https://repozytorium.nifc.pl/islandora/object/pl-stab%3A1317/datastream/PDF/view
!!!ONB-nifc: UWAGA: części Nieszporów: 1. Domine ad adjuvandum, 2. Dixit Dominus, 3. Confitebor, 4. Beatus vir, 5. Laudate pueri, 6. Laudate Dominum, 7. In Exitu, 8. Magnificat, 9. Quia fecit, 10. Fecit potentiam, 11. Suscepit Israel, 12. Gloria patri
!!!OMD: Andante
!!!AIN: 1 alto 1 bass 2 cor 1 organ 1 soprn 1 tenor 2 violn
!!!key: F
**kern	**fba	**dynam	**kern	**kern	**kern	**kern	**kern	**kern	**text	**kern	**kern
*part9	*part9	*part9	*part8	*part7	*part6	*part5	*part4	*part3	*part3	*part2	*part1
*staff9	*staff9	*	*staff8	*staff7	*staff6	*staff5	*staff4	*staff3	*staff3	*staff2	*staff1
*I"Organo	*	*	*I"Violino Secondo	*I"Violino Primo	*I"Baſso.	*I"Tenore.	*I"Alto.	*I"Canto	*	*I"Cornu Secondo Ex C.	*I"Cornu Primo Ex C.
*I'org (=bc)	*	*	*I'vl 2	*I'vl 1	*I'B	*I'T	*I'A	*I'S	*	*I'cor 2	*I'cor 1
*Iorgan	*	*	*Ivioln	*Ivioln	*Ibass	*Itenor	*Ialto	*Isoprn	*	*Icor	*Icor
*ICklav	*	*	*ICstr	*ICstr	*ICvox	*ICvox	*ICvox	*ICvox	*	*IGbras	*ICbras
*IGripn	*	*	*IGripn	*IGripn	*	*	*	*IGsolo	*	*	*
*clefF4	*	*	*clefG2	*clefG2	*clefF4	*clefC4	*clefC3	*clefC1	*	*clefG2	*clefG2
*k[b-]	*	*	*k[b-]	*k[b-]	*k[b-]	*k[b-]	*k[b-]	*k[b-]	*	*k[b-]	*k[b-]
*F:	*	*	*F:	*F:	*F:	*F:	*F:	*F:	*	*F:	*F:
*M2/4	*	*	*M2/4	*M2/4	*M2/4	*M2/4	*M2/4	*M2/4	*	*M2/4	*M2/4
=1	=1	=1	=1	=1	=1	=1	=1	=1	=1	=1	=1
!	!	!	!	!	!	!	!	!LO:TX:b:i:t=andante	!	!	!
!LO:TX:a:i:t=Solo	!	!	!LO:TX:a:i:t=Solo	!LO:TX:a:i:t=Solo	!	!	!	!LO:TX:a:t=8	!	!	!
!LO:TX:a:i:t=Andante	!	!	!LO:TX:a:i:t=Andante	!LO:TX:a:t=Andante	!LO:TX:a:t=Quia Fecit Tacet.	!LO:TX:a:t=Quia Fecit Tacet.	!LO:TX:a:t=Quia Fecit Tacet.	!LO:TX:a:i:t=Solo	!	!LO:TX:a:t=Quia Fecit Tacet.	!LO:TX:a:t=Quia Fecit Tacet
8F\L	.	.	8a/L	4cc\	2ryy	2ryy	2ryy	0r	.	2ryy	2ryy
8F\	.	.	8a/	.	.	.	.	.	.	.	.
8F\	.	.	8a/	16cc\LL	.	.	.	.	.	.	.
.	.	.	.	16dd\	.	.	.	.	.	.	.
8F\J	.	.	8a/J	16ee\	.	.	.	.	.	.	.
.	.	.	.	16ff\JJ	.	.	.	.	.	.	.
=2	=2	=2	=2	=2	=2	=2	=2	=2	=2	=2	=2
*2\right	*	*	*	*	*	*	*	*	*	*	*
*tremolo	*	*	*	*	*	*	*	*	*	*	*
8F\L	6 4	.	16a\LL	16ee\LL	2ryy	2ryy	2ryy	.	.	2ryy	2ryy
.	.	.	16b-\J	16dd\J	.	.	.	.	.	.	.
8F\	.	.	8.b-\J	8.dd\J	.	.	.	.	.	.	.
8F\	.	.	.	.	.	.	.	.	.	.	.
.	.	.	16cc\LL	16ee\LL	.	.	.	.	.	.	.
8F\J	.	.	16dd\	16ff\	.	.	.	.	.	.	.
.	.	.	16b-\JJ	16dd\JJ	.	.	.	.	.	.	.
*Xtremolo	*	*	*	*	*	*	*	*	*	*	*
=3	=3	=3	=3	=3	=3	=3	=3	=3	=3	=3	=3
!LO:TX:a:t=P:problem=mixed beam	!	!	!	!	!	!	!	!	!	!	!
8F\L	5 3	.	8a/L	8cc/L	2ryy	2ryy	2ryy	.	.	2ryy	2ryy
8F\	.	.	16g/L	16b-/L	.	.	.	.	.	.	.
.	.	.	16f/JJ	16a/JJ	.	.	.	.	.	.	.
8c\	3_	.	16a/LL	16cc/LL	.	.	.	.	.	.	.
.	.	.	16g/	16b-/	.	.	.	.	.	.	.
8C/J	x	.	16f/	16a/	.	.	.	.	.	.	.
.	.	.	16e/JJ	16g/JJ	.	.	.	.	.	.	.
=4	=4	=4	=4	=4	=4	=4	=4	=4	=4	=4	=4
16F\LL	.	.	16g/LL	16b-/LL	2ryy	2ryy	2ryy	.	.	2ryy	2ryy
16F\	.	.	16f/J	16a/J	.	.	.	.	.	.	.
16F\	.	.	8f/J	8a/J	.	.	.	.	.	.	.
16F\JJ	.	.	.	.	.	.	.	.	.	.	.
16F\LL	.	.	8.a/L	8.cc/L	.	.	.	.	.	.	.
16F\	.	.	.	.	.	.	.	.	.	.	.
16F\	.	.	.	.	.	.	.	.	.	.	.
16F\JJ	.	.	32g/LL	32b-/LL	.	.	.	.	.	.	.
.	.	.	32f/JJJ	32a/JJJ	.	.	.	.	.	.	.
=5	=5	=5	=5	=5	=5	=5	=5	=5	=5	=5	=5
16c\LL	.	.	16f/LL	16a/LL	2ryy	2ryy	2ryy	0r	.	2ryy	2ryy
16c\	.	.	16e/J	16g/J	.	.	.	.	.	.	.
16c\	.	.	8e/J	8g/J	.	.	.	.	.	.	.
16c\JJ	.	.	.	.	.	.	.	.	.	.	.
16C/LL	.	.	8.e/L	8.cc\L	.	.	.	.	.	.	.
16C/	.	.	.	.	.	.	.	.	.	.	.
16C/	.	.	.	.	.	.	.	.	.	.	.
16C/JJ	.	.	16g/Jk	16b-\Jk	.	.	.	.	.	.	.
!	!	!	!	!LO:LB:g=original	!	!	!	!	!	!	!
=6	=6	=6	=6	=6	=6	=6	=6	=6	=6	=6	=6
16F\LL	.	.	16g/LL	16b-/LL	2ryy	2ryy	2ryy	.	.	2ryy	2ryy
16F\	.	.	16f/J	16a/J	.	.	.	.	.	.	.
16F\	.	.	8f/J	8a/J	.	.	.	.	.	.	.
16F\JJ	.	.	.	.	.	.	.	.	.	.	.
16A\LL	6_	.	8.cc\L	8.ff\L	.	.	.	.	.	.	.
16A\	.	.	.	.	.	.	.	.	.	.	.
16A\	5	.	.	.	.	.	.	.	.	.	.
16A\JJ	6	.	32dd\LL	16ee-X\Jk	.	.	.	.	.	.	.
.	.	.	32cc\JJJ	.	.	.	.	.	.	.	.
!LO:LB:g=original	!	!	!	!	!	!	!	!	!	!	!
=7	=7	=7	=7	=7	=7	=7	=7	=7	=7	=7	=7
8B-\	3	.	16cc\LL	16ee\LL	2ryy	2ryy	2ryy	.	.	2ryy	2ryy
.	.	.	16b-\	16dd\	.	.	.	.	.	.	.
8r	.	.	16dd\	16ff\	.	.	.	.	.	.	.
.	.	.	16b-\JJ	16dd\JJ	.	.	.	.	.	.	.
!	!	!	!LO:LB:g=original	!	!	!	!	!	!	!	!
=-	=-	=-	=-	=-	=-	=-	=-	=-	=-	=-	=-
!LO:TX:a:t=P:problem=mixed beam	!	!	!	!	!	!	!	!	!	!	!
8c\L	4	.	16a/LL	16cc/LL	.	.	.	.	.	.	.
.	.	.	16g/	16b-/	.	.	.	.	.	.	.
8C/J	3	.	16f/	16a/	.	.	.	.	.	.	.
.	.	.	16e/JJ	16g/JJ	.	.	.	.	.	.	.
=8	=8	=8	=8	=8	=8	=8	=8	=8	=8	=8	=8
!LO:TX:a:t=P:problem=mixed beam	!	!	!	!	!	!	!	!	!	!	!
8F\L	9_ 4_	.	8.g/L	8.b-/L	2ryy	2ryy	2ryy	.	.	2ryy	2ryy
8FF/	.	.	.	.	.	.	.	.	.	.	.
.	.	.	32a/LL	32cc/LL	.	.	.	.	.	.	.
.	.	.	32g/JJJ	32b-/JJJ	.	.	.	.	.	.	.
8F\J	8 3	.	8f/	8a/	.	.	.	.	.	.	.
8r	.	.	8r	8r	.	.	.	.	.	.	.
=9	=9	=9	=9	=9	=9	=9	=9	=9	=9	=9	=9
!	!	!LO:DY:a:t=pia	!	!	!	!	!	!	!	!	!
8F\	.	p	16r	16r	2ryy	2ryy	2ryy	8.cc\L	Qui-	2ryy	2ryy
.	.	.	16A/LL	16c/LL	.	.	.	.	.	.	.
8r	.	.	16A/	16c/	.	.	.	.	.	.	.
.	.	.	16A/JJ	16c/JJ	.	.	.	32dd\LL	.	.	.
.	.	.	.	.	.	.	.	32cc\JJJ	.	.	.
*	*	*	*tremolo	*tremolo	*	*	*	*	*	*	*
4r	.	.	16A/LL	16c/LL	.	.	.	8b-\	-a	.	.
.	.	.	16A/	16c/	.	.	.	.	.	.	.
.	.	.	16A/	16c/	.	.	.	8r	.	.	.
.	.	.	16A/JJ	16c/JJ	.	.	.	.	.	.	.
*	*	*	*Xtremolo	*Xtremolo	*	*	*	*	*	*	*
=10	=10	=10	=10	=10	=10	=10	=10	=10	=10	=10	=10
8F\	.	.	16r	16r	2ryy	2ryy	2ryy	8.cc\L	fe-	2ryy	2ryy
.	.	.	16A/LL	16c/LL	.	.	.	.	.	.	.
8r	.	.	16A/	16c/	.	.	.	.	.	.	.
*	*	*	*	*	*	*	*	*Xtuplet	*	*	*
.	.	.	16A/JJ	16c/JJ	.	.	.	48dd\LL	.	.	.
.	.	.	.	.	.	.	.	48cc\	.	.	.
.	.	.	.	.	.	.	.	48b-\JJJ	.	.	.
*	*	*	*tremolo	*tremolo	*	*	*	*	*	*	*
4r	.	.	16A/LL	16c/LL	.	.	.	8a\	-cit	.	.
.	.	.	16A/	16c/	.	.	.	.	.	.	.
.	.	.	16A/	16c/	.	.	.	8r	.	.	.
.	.	.	16A/JJ	16c/JJ	.	.	.	.	.	.	.
*	*	*	*Xtremolo	*Xtremolo	*	*	*	*	*	*	*
=11	=11	=11	=11	=11	=11	=11	=11	=11	=11	=11	=11
8F\	.	.	16r	16r	2ryy	2ryy	2ryy	8.cc\	fe-	2ryy	2ryy
.	.	.	16A/LL	16f/LL	.	.	.	.	.	.	.
8r	.	.	16A/	16f/	.	.	.	.	.	.	.
.	.	.	16A/JJ	16f/JJ	.	.	.	16a\	-cit	.	.
8F\	.	.	16r	16r	.	.	.	16ff\LL	mi-	.	.
.	.	.	16A/LL	16f/LL	.	.	.	16cc\JJ	.	.	.
8r	.	.	16A/	16f/	.	.	.	16b-\LL	-chi	.	.
.	.	.	16A/JJ	16f/JJ	.	.	.	16a\JJ	.	.	.
!	!	!	!	!LO:LB:g=original	!	!	!	!LO:LB:g=original	!	!	!
=12	=12	=12	=12	=12	=12	=12	=12	=12	=12	=12	=12
8C/	.	.	16r	16r	2ryy	2ryy	2ryy	16a\LL	ma-	2ryy	2ryy
.	.	.	16c/LL	16e/LL	.	.	.	16g\JJ	.	.	.
8r	.	.	16c/	16e/	.	.	.	8g\	-gna	.	.
.	.	.	16c/JJ	16e/JJ	.	.	.	.	.	.	.
4r	.	.	32c/LLL	32e/LLL	.	.	.	4r	.	.	.
.	.	.	32Bn/	32d/	.	.	.	.	.	.	.
.	.	.	32c/	32e/	.	.	.	.	.	.	.
.	.	.	32d/JJJ	32f/JJJ	.	.	.	.	.	.	.
!	!	!	!LO:LB:g=original	!	!	!	!	!	!	!	!
=-	=-	=-	=-	=-	=-	=-	=-	=-	=-	=-	=-
.	.	.	32e/LLL	32g/LLL	.	.	.	.	.	.	.
.	.	.	32f/	32a/	.	.	.	.	.	.	.
.	.	.	32e/	32g/	.	.	.	.	.	.	.
.	.	.	32d/JJJ	32f/JJJ	.	.	.	.	.	.	.
=13	=13	=13	=13	=13	=13	=13	=13	=13	=13	=13	=13
8c\	.	.	16c/LL	16e/LL	2ryy	2ryy	2ryy	8.b-\L	Qui-	2ryy	2ryy
.	.	.	16c/	16e/	.	.	.	.	.	.	.
8r	.	.	16c/	16e/	.	.	.	.	.	.	.
.	.	.	16c/JJ	16e/JJ	.	.	.	32cc\LL	.	.	.
.	.	.	.	.	.	.	.	32b-\JJJ	.	.	.
*	*	*	*tremolo	*tremolo	*	*	*	*	*	*	*
4r	.	.	16c/LL	16e/LL	.	.	.	8g\	-a	.	.
.	.	.	16c/	16e/	.	.	.	.	.	.	.
.	.	.	16c/	16e/	.	.	.	8r	.	.	.
.	.	.	16c/JJ	16e/JJ	.	.	.	.	.	.	.
*	*	*	*Xtremolo	*Xtremolo	*	*	*	*	*	*	*
=14	=14	=14	=14	=14	=14	=14	=14	=14	=14	=14	=14
8c\	.	.	16r	16r	2ryy	2ryy	2ryy	8.b-\L	fe-	2ryy	2ryy
.	.	.	16c/LL	16e/LL	.	.	.	.	.	.	.
8r	.	.	16c/	16e/	.	.	.	.	.	.	.
.	.	.	16c/JJ	16e/JJ	.	.	.	48cc\LL	.	.	.
.	.	.	.	.	.	.	.	48b-\	.	.	.
.	.	.	.	.	.	.	.	48a\JJJ	.	.	.
*	*	*	*tremolo	*tremolo	*	*	*	*	*	*	*
4r	.	.	16c/LL	16e/LL	.	.	.	8g\	-cit	.	.
.	.	.	16c/	16e/	.	.	.	.	.	.	.
.	.	.	16c/	16e/	.	.	.	8r	.	.	.
.	.	.	16c/JJ	16e/JJ	.	.	.	.	.	.	.
*	*	*	*Xtremolo	*Xtremolo	*	*	*	*	*	*	*
=15	=15	=15	=15	=15	=15	=15	=15	=15	=15	=15	=15
8c\	.	.	16r	16r	2ryy	2ryy	2ryy	8.cc\	fe-	2ryy	2ryy
.	.	.	16G/LL	16e/LL	.	.	.	.	.	.	.
8r	.	.	16G/	16e/	.	.	.	.	.	.	.
.	.	.	16G/JJ	16e/JJ	.	.	.	16ee\	-cit	.	.
8C/	.	.	16r	16r	.	.	.	16gg\LL	mi-	.	.
.	.	.	16G/LL	16e/LL	.	.	.	16ee\JJ	.	.	.
8r	.	.	16G/	16e/	.	.	.	16cc\LL	-hi	.	.
.	.	.	16G/JJ	16e/JJ	.	.	.	16b-\JJ	.	.	.
!LO:LB:g=original	!	!	!	!	!	!	!	!	!	!	!
=16	=16	=16	=16	=16	=16	=16	=16	=16	=16	=16	=16
8F\	.	.	16r	16r	2ryy	2ryy	2ryy	16b-\LL	ma-	2ryy	2ryy
.	.	.	16A/LL	16f/LL	.	.	.	16a\JJ	.	.	.
8r	.	.	16A/	16f/	.	.	.	8a\	-gna	.	.
.	.	.	16A/JJ	16f/JJ	.	.	.	.	.	.	.
4r	.	.	32A/LLL	32f/LLL	.	.	.	4r	.	.	.
.	.	.	32G/	32e/	.	.	.	.	.	.	.
.	.	.	32A/	32f/	.	.	.	.	.	.	.
.	.	.	32B-/JJJ	32g/JJJ	.	.	.	.	.	.	.
.	.	.	32c/LLL	32a/LLL	.	.	.	.	.	.	.
.	.	.	32d/	32b-/	.	.	.	.	.	.	.
.	.	.	32c/	32a/	.	.	.	.	.	.	.
.	.	.	32B-/JJJ	32g/JJJ	.	.	.	.	.	.	.
!	!	!	!LO:LB:g=original	!	!	!	!	!LO:LB:g=original	!	!	!
=17	=17	=17	=17	=17	=17	=17	=17	=17	=17	=17	=17
8F\	.	.	16A/LL	16f/LL	2ryy	2ryy	2ryy	16a\LL	qui	2ryy	2ryy
.	.	.	16A/	16c/	.	.	.	16cc\JJ	.	.	.
8r	.	.	16A/	16c/	.	.	.	4cc\	po-	.	.
.	.	.	16A/JJ	16c/JJ	.	.	.	.	.	.	.
8F\	.	.	16r	16r	.	.	.	.	.	.	.
.	.	.	16A/LL	16c/LL	.	.	.	.	.	.	.
8r	.	.	16A/	16c/	.	.	.	32dd\LLL	.	.	.
.	.	.	.	.	.	.	.	32cc\JJJ	.	.	.
.	.	.	16A/JJ	16c/JJ	.	.	.	32b-\LLL	-tens	.	.
.	.	.	.	.	.	.	.	32a\JJJ	.	.	.
!	!	!	!	!LO:LB:g=original	!	!	!	!	!	!	!
=18	=18	=18	=18	=18	=18	=18	=18	=18	=18	=18	=18
16r	.	.	16r	16r	2ryy	2ryy	2ryy	4g\	est	2ryy	2ryy
16C/LL	.	.	16c/LL	16c/LL	.	.	.	.	.	.	.
16C/	.	.	16c/	16c/	.	.	.	.	.	.	.
16C/JJ	.	.	16c/JJ	16c/JJ	.	.	.	.	.	.	.
(>32C\LLL	.	.	32c/LLL	32c/LLL	.	.	.	4r	.	.	.
32D\	.	.	32d/	32d/	.	.	.	.	.	.	.
32E\	.	.	32e/	32e/	.	.	.	.	.	.	.
32F\JJJ)	.	.	32f/JJJ	32f/JJJ	.	.	.	.	.	.	.
(>32G\LLL	.	.	32g/LLL	32g/LLL	.	.	.	.	.	.	.
32F\	.	.	32f/	32f/	.	.	.	.	.	.	.
32E\	.	.	32e/	32e/	.	.	.	.	.	.	.
32D\JJJ)	.	.	32d/JJJ	32d/JJJ	.	.	.	.	.	.	.
=19	=19	=19	=19	=19	=19	=19	=19	=19	=19	=19	=19
8C/	.	.	16c/LL	16c/LL	2ryy	2ryy	2ryy	16g\LL	qui	2ryy	2ryy
.	.	.	16c/	16e/	.	.	.	16cc\JJ	.	.	.
8r	.	.	16c/	16e/	.	.	.	4cc\	po-	.	.
.	.	.	16c/JJ	16e/JJ	.	.	.	.	.	.	.
8C/	.	.	16r	16r	.	.	.	.	.	.	.
.	.	.	16c/LL	16e/LL	.	.	.	.	.	.	.
8r	.	.	16c/	16e/	.	.	.	32cc\LLL	.	.	.
.	.	.	.	.	.	.	.	32b-\JJJ	.	.	.
.	.	.	16c/JJ	16e/JJ	.	.	.	32a\LLL	-tens	.	.
.	.	.	.	.	.	.	.	32b-\JJJ	.	.	.
=20	=20	=20	=20	=20	=20	=20	=20	=20	=20	=20	=20
16r	.	.	16r	16r	2ryy	2ryy	2ryy	4a\	est	2ryy	2ryy
16F\LL	.	.	16f/LL	16f/LL	.	.	.	.	.	.	.
16F\	.	.	16f/	16f/	.	.	.	.	.	.	.
16F\JJ	.	.	16f/JJ	16f/JJ	.	.	.	.	.	.	.
(>32F\LLL	.	.	32f/LLL	32f/LLL	.	.	.	4r	.	.	.
32G\	.	.	32g/	32g/	.	.	.	.	.	.	.
32A\	.	.	32a/	32a/	.	.	.	.	.	.	.
32B-\JJJ	.	.	32b-/JJJ	32b-/JJJ	.	.	.	.	.	.	.
32c\LLL	.	.	32cc/LLL	32cc/LLL	.	.	.	.	.	.	.
32B-\	.	.	32b-/	32b-/	.	.	.	.	.	.	.
32A\	.	.	32a/	32a/	.	.	.	.	.	.	.
32G\JJJ)	.	.	32g/JJJ	32g/JJJ	.	.	.	.	.	.	.
!	!	!	!LO:PB:g=original	!	!	!	!	!	!	!	!
=21	=21	=21	=21	=21	=21	=21	=21	=21	=21	=21	=21
8F\	.	.	16f/LL	16r	2ryy	2ryy	2ryy	4a\	et	2ryy	2ryy
.	.	.	16f/	16a/LL	.	.	.	.	.	.	.
8r	.	.	16f/	16a/	.	.	.	.	.	.	.
.	.	.	16f/JJ	16a/JJ	.	.	.	.	.	.	.
8D\	6\ 3	.	16r	16r	.	.	.	8bn\	San-	.	.
.	.	.	16f/LL	16bn\LL	.	.	.	.	.	.	.
8r	.	.	16f/	16b\	.	.	.	16a\LL	-ctum	.	.
.	.	.	16f/JJ	16b\JJ	.	.	.	16b\JJ	.	.	.
=22	=22	=22	=22	=22	=22	=22	=22	=22	=22	=22	=22
8C/	.	.	16r	16r	2ryy	2ryy	2ryy	16dd\LL	no-	2ryy	2ryy
.	.	.	16e/LL	16cc\LL	.	.	.	16cc\JJ	.	.	.
8r	.	.	16e/	16cc\	.	.	.	4cc\	-men	.	.
.	.	.	16e/JJ	16cc\JJ	.	.	.	.	.	.	.
8E\	6	.	16r	16r	.	.	.	.	.	.	.
.	.	.	16e/LL	16g/LL	.	.	.	.	.	.	.
8r	.	.	16e/	16g/	.	.	.	8cc#X\	.	.	.
.	.	.	16e/JJ	16g/JJ	.	.	.	.	.	.	.
!LO:LB:g=original	!	!	!	!LO:LB:g=original	!	!	!	!LO:LB:g=original	!	!	!
=23	=23	=23	=23	=23	=23	=23	=23	=23	=23	=23	=23
*	*	*	*	*	*	*	*	*	*ij	*	*
8F\	6	.	16r	16r	2ryy	2ryy	2ryy	8dd\	San-	2ryy	2ryy
.	.	.	16f/LL	16a/LL	.	.	.	.	.	.	.
8r	.	.	16f/	16a/	.	.	.	8ee\	-ctum	.	.
.	.	.	16f/JJ	16a/JJ	.	.	.	.	.	.	.
8F#X\	5	.	16r	16r	.	.	.	16dd\LL	no-	.	.
.	.	.	16e/LL	16a/LL	.	.	.	16ccn\JJ	.	.	.
8r	.	.	16e/	16a/	.	.	.	16bn\LL	-men	.	.
*	*	*	*	*	*	*	*	*	*Xij	*	*
.	.	.	16e/JJ	16a/JJ	.	.	.	16cc\JJ	.	.	.
=24	=24	=24	=24	=24	=24	=24	=24	=24	=24	=24	=24
8G\	6 4	.	16r	16r	2ryy	2ryy	2ryy	4cc\	e-	2ryy	2ryy
.	.	.	16e/LL	16cc\LL	.	.	.	.	.	.	.
8r	.	.	16e/	16cc\	.	.	.	.	.	.	.
.	.	.	16e/JJ	16cc\JJ	.	.	.	.	.	.	.
8GG/	5nr	.	16r	16r	.	.	.	8bn\	-jus	.	.
.	.	.	16d/LL	16bn\LL	.	.	.	.	.	.	.
8r	.	.	16d/	16b\	.	.	.	8r	.	.	.
.	.	.	16d/JJ	16b\JJ	.	.	.	.	.	.	.
=25	=25	=25	=25	=25	=25	=25	=25	=25	=25	=25	=25
8C/	.	.	16r	16r	2ryy	2ryy	2ryy	4cc\	&	2ryy	2ryy
.	.	.	16e/LL	16g/LL	.	.	.	.	.	.	.
8r	.	.	16e/	16g/	.	.	.	.	.	.	.
.	.	.	16e/JJ	16g/JJ	.	.	.	.	.	.	.
4r	.	.	8e/	8g/	.	.	.	16cc\LL	San-	.	.
.	.	.	.	.	.	.	.	16ee\JJ	.	.	.
.	.	.	8r	8r	.	.	.	16gg\LL	-ctum	.	.
.	.	.	.	.	.	.	.	16ee\JJ	.	.	.
=26	=26	=26	=26	=26	=26	=26	=26	=26	=26	=26	=26
8F\	6	.	16r	16r	2ryy	2ryy	2ryy	16ee\LL	no-	2ryy	2ryy
.	.	.	16f/LL	16a/LL	.	.	.	16dd\JJ	.	.	.
8r	.	.	16f/	16a/	.	.	.	4dd\	-men	.	.
.	.	.	16f/JJ	16a/JJ	.	.	.	.	.	.	.
!	!	!	!LO:LB:g=original	!	!	!	!	!	!	!	!
=-	=-	=-	=-	=-	=-	=-	=-	=-	=-	=-	=-
4r	.	.	8f/	8a/	.	.	.	.	.	.	.
.	.	.	8r	8r	.	.	.	32dd\LLL	.	.	.
.	.	.	.	.	.	.	.	32ee\	.	.	.
.	.	.	.	.	.	.	.	32dd\	et	.	.
.	.	.	.	.	.	.	.	32cc\JJJ	.	.	.
=27	=27	=27	=27	=27	=27	=27	=27	=27	=27	=27	=27
8F\	n	.	16r	16r	2ryy	2ryy	2ryy	8.bn\	San-	2ryy	2ryy
.	.	.	16G/LL 16d	16bn\LL	.	.	.	.	.	.	.
8r	.	.	16G/ 16d	16b\	.	.	.	.	.	.	.
.	.	.	16G/JJ 16d	16b\JJ	.	.	.	16dd\	-ctum	.	.
4r	.	.	8G/ 8d	8b\	.	.	.	16gg\LL	no-	.	.
.	.	.	.	.	.	.	.	16ff\JJ	.	.	.
!	!	!	!	!	!	!	!	!LO:LB:g=original	!	!	!
=-	=-	=-	=-	=-	=-	=-	=-	=-	=-	=-	=-
.	.	.	8r	8r	.	.	.	16ee\LL	-men	.	.
.	.	.	.	.	.	.	.	16dd\JJ	.	.	.
=28	=28	=28	=28	=28	=28	=28	=28	=28	=28	=28	=28
8C/	.	.	16r	16r	2ryy	2ryy	2ryy	16dd\LL	e-	2ryy	2ryy
.	.	.	16G/LL 16e	16cc\LL	.	.	.	16cc\JJ	.	.	.
8r	.	.	16G/ 16e	16cc\	.	.	.	8cc\	-juſ	.	.
.	.	.	16G/JJ 16e	16cc\JJ	.	.	.	.	.	.	.
4r	.	.	8G/ 8e	8cc\	.	.	.	8r	.	.	.
.	.	.	8r	8r	.	.	.	32cc\LLL	et	.	.
.	.	.	.	.	.	.	.	32dd\	.	.	.
.	.	.	.	.	.	.	.	32ee\	.	.	.
.	.	.	.	.	.	.	.	32ff\JJJ	.	.	.
=29	=29	=29	=29	=29	=29	=29	=29	=29	=29	=29	=29
16r	.	.	16r	16r	2ryy	2ryy	2ryy	16gg\LL	San-	2ryy	2ryy
16E\LL	6 3	.	16g/LL	16cc\LL	.	.	.	16ee\JJ	.	.	.
16E\	_ _	.	16g/	16cc\	.	.	.	8cc\	-ctum	.	.
16E\JJ	.	.	16g/JJ	16cc\JJ	.	.	.	.	.	.	.
8E\	x	.	8g/	8cc\	.	.	.	8r	.	.	.
8r	.	.	8r	8r	.	.	.	32bn\LLL	&	.	.
.	.	.	.	.	.	.	.	32cc\	.	.	.
.	.	.	.	.	.	.	.	32dd\	.	.	.
.	.	.	.	.	.	.	.	32ee\JJJ	.	.	.
!	!	!	!	!LO:PB:g=original	!	!	!	!	!	!	!
=30	=30	=30	=30	=30	=30	=30	=30	=30	=30	=30	=30
16r	.	.	16r	16r	2ryy	2ryy	2ryy	16ff\LL	San-	2ryy	2ryy
16F\LL	6 3	.	16a/LL	16dd\LL	.	.	.	16dd\JJ	.	.	.
16F\	_ _	.	16a/	16dd\	.	.	.	8dd\	-ctum	.	.
16F\JJ	.	.	16a/JJ	16dd\JJ	.	.	.	.	.	.	.
8F\	x	.	8a/	8dd\	.	.	.	8r	.	.	.
8r	.	.	8r	8r	.	.	.	32cc\LLL	No-	.	.
.	.	.	.	.	.	.	.	32dd\	.	.	.
.	.	.	.	.	.	.	.	32ee\	.	.	.
!	!	!	!	!	!	!	!	!LO:TX:b:i:t=Verte Subitto	!	!	!
.	.	.	.	.	.	.	.	32ff\JJJ	.	.	.
!LO:LB:g=original	!	!	!	!	!	!	!	!LO:PB:g=original	!	!	!
=31	=31	=31	=31	=31	=31	=31	=31	=31	=31	=31	=31
16r	.	.	16r	16r	2ryy	2ryy	2ryy	4ee\	.	2ryy	2ryy
16G\LL	6 4	.	16e/LL	16cc\LL	.	.	.	.	.	.	.
16G\	_ _	.	16e/	16cc\	.	.	.	.	.	.	.
16G\JJ	.	.	16e/JJ	16cc\JJ	.	.	.	.	.	.	.
8G\	x	.	8e/	8cc\	.	.	.	32ee\LLL	.	.	.
.	.	.	.	.	.	.	.	32ff\	.	.	.
.	.	.	.	.	.	.	.	32ee\	.	.	.
.	.	.	.	.	.	.	.	32dd\JJJ	.	.	.
8r	.	.	8r	8r	.	.	.	32cc\LLL	.	.	.
.	.	.	.	.	.	.	.	32bn\	.	.	.
.	.	.	.	.	.	.	.	32cc\	.	.	.
.	.	.	.	.	.	.	.	32dd\JJJ	.	.	.
!	!	!	!LO:LB:g=original	!	!	!	!	!	!	!	!
=32	=32	=32	=32	=32	=32	=32	=32	=32	=32	=32	=32
16r	.	.	16r	16r	2ryy	2ryy	2ryy	4ee\	.	2ryy	2ryy
16G\LL	6 4	.	16e/LL	16cc\LL	.	.	.	.	.	.	.
16G\	_ _	.	16e/	16cc\	.	.	.	.	.	.	.
16G\JJ	.	.	16e/JJ	16cc\JJ	.	.	.	.	.	.	.
8G\	x	.	8e/	8cc\	.	.	.	32ee\LLL	.	.	.
.	.	.	.	.	.	.	.	32ff\	.	.	.
.	.	.	.	.	.	.	.	32ee\	.	.	.
.	.	.	.	.	.	.	.	32dd\JJJ	.	.	.
8r	.	.	8r	8r	.	.	.	32cc\LLL	.	.	.
.	.	.	.	.	.	.	.	32bn\	.	.	.
.	.	.	.	.	.	.	.	32cc\	.	.	.
.	.	.	.	.	.	.	.	32dd\JJJ	.	.	.
=33	=33	=33	=33	=33	=33	=33	=33	=33	=33	=33	=33
8G\	6 4	.	8e/	8cc\	2ryy	2ryy	2ryy	32ee\LLL	.	2ryy	2ryy
.	.	.	.	.	.	.	.	32ff\	.	.	.
.	.	.	.	.	.	.	.	32ee\	.	.	.
.	.	.	.	.	.	.	.	32dd\JJJ	.	.	.
8r	.	.	8r	8r	.	.	.	32cc\LLL	.	.	.
.	.	.	.	.	.	.	.	32bn\	.	.	.
.	.	.	.	.	.	.	.	32cc\	.	.	.
.	.	.	.	.	.	.	.	32dd\JJJ	.	.	.
8G\	_ _	.	8e/	8cc\	.	.	.	32ee\LLL	.	.	.
.	.	.	.	.	.	.	.	32ff\	.	.	.
.	.	.	.	.	.	.	.	32ee\	.	.	.
.	.	.	.	.	.	.	.	32dd\JJJ	.	.	.
8r	.	.	8r	8r	.	.	.	32cc\LLL	.	.	.
.	.	.	.	.	.	.	.	32bn\	.	.	.
.	.	.	.	.	.	.	.	32cc\	.	.	.
.	.	.	.	.	.	.	.	32dd\JJJ	.	.	.
!	!	!	!	!	!	!	!	!LO:LB:g=original	!	!	!
=34	=34	=34	=34	=34	=34	=34	=34	=34	=34	=34	=34
8G\	x	.	8e/	32cc\LLL	2ryy	2ryy	2ryy	32ee\LLL	.	2ryy	2ryy
.	.	.	.	32bn\	.	.	.	32dd\	.	.	.
.	.	.	.	32cc\	.	.	.	32ee\	.	.	.
.	.	.	.	32b\JJJ	.	.	.	32dd\JJJ	.	.	.
*	*	*	*	*rep	*	*	*	*	*	*	*
8r	.	.	8r	32cc\LLL	.	.	.	32ee\LLL	.	.	.
.	.	.	.	32b\	.	.	.	32dd\	.	.	.
.	.	.	.	32cc\	.	.	.	32ee\	.	.	.
.	.	.	.	32b\JJJ	.	.	.	32dd\JJJ	.	.	.
*	*	*	*	*Xrep	*	*	*	*	*	*	*
4r	.	.	4r	32cc\LLL	.	.	.	32ee\LLL	.	.	.
.	.	.	.	32dd\	.	.	.	32ff\	.	.	.
.	.	.	.	32ee\	.	.	.	32gg\	.	.	.
.	.	.	.	32dd\JJJ	.	.	.	32ff\JJJ	.	.	.
.	.	.	.	32ff\LLL	.	.	.	32aa\LLL	.	.	.
.	.	.	.	32ee\	.	.	.	32gg\JJJ	.	.	.
.	.	.	.	32dd\	.	.	.	32ff\LLL	-men	.	.
.	.	.	.	32cc\JJJ	.	.	.	32ee\JJJ	.	.	.
=35	=35	=35	=35	=35	=35	=35	=35	=35	=35	=35	=35
*	*	*	*	*2\right	*	*	*	*	*	*	*
16G\LL	n	.	16f/LL	2bn\	2ryy	2ryy	2ryy	2ddTT\	e-	2ryy	2ryy
16G\	.	.	16f/	.	.	.	.	.	.	.	.
16G\	.	.	16f/	.	.	.	.	.	.	.	.
16G\JJ	_	.	16f/JJ	.	.	.	.	.	.	.	.
*	*	*	*tremolo	*	*	*	*	*	*	*	*
16GG/LL	.	.	16f/LL	.	.	.	.	.	.	.	.
16GG/	.	.	16f/	.	.	.	.	.	.	.	.
16GG/	.	.	16f/	.	.	.	.	.	.	.	.
16GG/JJ	x	.	16f/JJ	.	.	.	.	.	.	.	.
*	*	*	*Xtremolo	*	*	*	*	*	*	*	*
=36	=36	=36	=36	=36	=36	=36	=36	=36	=36	=36	=36
!LO:TX:a:t=P:problem=mixed beam	!	!LO:DY:a:t=for	!	!	!	!	!	!	!	!	!
16C/LL	.	f	8e/L	8.cc\L	2ryy	2ryy	2ryy	4cc\	-jus	2ryy	2ryy
16c\	.	.	.	.	.	.	.	.	.	.	.
16c\	.	.	16c/L	.	.	.	.	.	.	.	.
16c\JJ	.	.	16d/JJ	16dd\Jk	.	.	.	.	.	.	.
8c\	.	.	16e/LL	16ee\LL	.	.	.	4r	.	.	.
.	.	.	16f/	16ff\	.	.	.	.	.	.	.
8r	.	.	16g/	16gg\	.	.	.	.	.	.	.
.	.	.	16a/JJ	16aa\JJ	.	.	.	.	.	.	.
!	!	!	!	!LO:LB:g=original	!	!	!	!	!	!	!
=37	=37	=37	=37	=37	=37	=37	=37	=37	=37	=37	=37
4d\	3_	.	16g/LL	16gg\LL	2ryy	2ryy	2ryy	0r	.	2ryy	2ryy
.	.	.	16f/	16ff\	.	.	.	.	.	.	.
.	.	.	16f/	16ff\	.	.	.	.	.	.	.
.	.	.	16f/JJ	16ff\JJ	.	.	.	.	.	.	.
16d\LL	.	.	8f/	8ff\	.	.	.	.	.	.	.
16c\	x	.	.	.	.	.	.	.	.	.	.
16Bn\	.	.	8r	8r	.	.	.	.	.	.	.
16A\JJ	.	.	.	.	.	.	.	.	.	.	.
!LO:LB:g=original	!	!	!	!	!	!	!	!	!	!	!
=38	=38	=38	=38	=38	=38	=38	=38	=38	=38	=38	=38
16G\LL	n	.	8.Bn/L	8.bn\L	2ryy	2ryy	2ryy	.	.	2ryy	2ryy
16G\	.	.	.	.	.	.	.	.	.	.	.
16G\	.	.	.	.	.	.	.	.	.	.	.
16G\JJ	.	.	16c/Jk	16cc\Jk	.	.	.	.	.	.	.
8G\	.	.	16d/LL	16dd\LL	.	.	.	.	.	.	.
.	.	.	16e/	16ee\	.	.	.	.	.	.	.
8r	.	.	16f/	16ff\	.	.	.	.	.	.	.
.	.	.	16g/JJ	16gg\JJ	.	.	.	.	.	.	.
!	!	!	!LO:LB:g=original	!	!	!	!	!	!	!	!
=39	=39	=39	=39	=39	=39	=39	=39	=39	=39	=39	=39
4c\	3	.	16f/LL	16ff\LL	2ryy	2ryy	2ryy	.	.	2ryy	2ryy
.	.	.	16e/	16ee\	.	.	.	.	.	.	.
.	.	.	16e/	16ee\	.	.	.	.	.	.	.
.	.	.	16e/JJ	16ee\JJ	.	.	.	.	.	.	.
16c\LL	.	.	8e/	8ee\	.	.	.	.	.	.	.
16B-X\	.	.	.	.	.	.	.	.	.	.	.
16A\	.	.	8r	8r	.	.	.	.	.	.	.
16G\JJ	.	.	.	.	.	.	.	.	.	.	.
=40	=40	=40	=40	=40	=40	=40	=40	=40	=40	=40	=40
16F\LL	3_	.	8A/L	8a/L	2ryy	2ryy	2ryy	.	.	2ryy	2ryy
16F\	.	.	.	.	.	.	.	.	.	.	.
16F\	.	.	8.A/J	8.a/J	.	.	.	.	.	.	.
16F\JJ	.	.	.	.	.	.	.	.	.	.	.
16F\LL	4nr 2	.	.	.	.	.	.	.	.	.	.
16F\	_ _	.	16Bn/LL	16bn\LL	.	.	.	.	.	.	.
16F\	.	.	16c/	16cc\	.	.	.	.	.	.	.
16F\JJ	x	.	16d/JJ	16dd\JJ	.	.	.	.	.	.	.
=41	=41	=41	=41	=41	=41	=41	=41	=41	=41	=41	=41
*tremolo	*	*	*	*	*	*	*	*	*	*	*
16E\LL	6_	.	16d/LL	16dd\LL	2ryy	2ryy	2ryy	1r	.	2ryy	2ryy
16E\	.	.	16c/J	16cc\J	.	.	.	.	.	.	.
16E\	.	.	8.c/J	8.cc\J	.	.	.	.	.	.	.
16E\JJ	.	.	.	.	.	.	.	.	.	.	.
16E\LL	x	.	.	.	.	.	.	.	.	.	.
!	!	!	!	!LO:TX:b:t=2	!	!	!	!	!	!	!
16E\	.	.	16d/LL	16dd\LL	.	.	.	.	.	.	.
16E\	.	.	16e/	16ee\	.	.	.	.	.	.	.
16E\JJ	.	.	16c/JJ	16cc\JJ	.	.	.	.	.	.	.
=42	=42	=42	=42	=42	=42	=42	=42	=42	=42	=42	=42
16F\LL	6	.	16d/LL	16dd\LL	2ryy	2ryy	2ryy	.	.	2ryy	2ryy
16F\	.	.	32f/L	32ff\L	.	.	.	.	.	.	.
.	.	.	32e/JJJ	32ee\JJJ	.	.	.	.	.	.	.
16F\	.	.	32g/LLL	32gg\LLL	.	.	.	.	.	.	.
.	.	.	32f/	32ff\	.	.	.	.	.	.	.
16F\JJ	.	.	32e/	32ee\	.	.	.	.	.	.	.
.	.	.	32d/JJJ	32dd\JJJ	.	.	.	.	.	.	.
*Xtremolo	*	*	*	*	*	*	*	*	*	*	*
!LO:TX:a:t=P:problem=mixed beam	!	!	!	!	!	!	!	!	!	!	!
16G\LL	6 4	.	16c/LL	8cc\L	.	.	.	.	.	.	.
16G\	.	.	16e/	.	.	.	.	.	.	.	.
16GG/	5 n	.	16g/	8bn\J	.	.	.	.	.	.	.
16GG/JJ	.	.	16f/JJ	.	.	.	.	.	.	.	.
=43	=43	=43	=43	=43	=43	=43	=43	=43	=43	=43	=43
!LO:TX:a:t=P:problem=mixed beam	!	!	!	!	!	!	!	!	!	!	!
8C/L	3_	.	8e/L	8.cc\L	2ryy	2ryy	2ryy	2r	.	2ryy	2ryy
8c\	.	.	8g/	.	.	.	.	.	.	.	.
.	.	.	.	32dd\LL	.	.	.	.	.	.	.
.	.	.	.	32ee\JJJ	.	.	.	.	.	.	.
8C/J	x	.	8e/J	8cc\	.	.	.	.	.	.	.
8r	.	.	8r	8r	.	.	.	.	.	.	.
!	!	!	!	!LO:LB:g=original	!	!	!	!	!	!	!
=44	=44	=44	=44	=44	=44	=44	=44	=44	=44	=44	=44
8c\	8 3	.	16r	16r	2ryy	2ryy	2ryy	4.cc\	et	2ryy	2ryy
.	.	.	16c/LL	16e/LL	.	.	.	.	.	.	.
8r	.	.	16c/	16e/	.	.	.	.	.	.	.
.	.	.	16c/JJ	16e/JJ	.	.	.	.	.	.	.
8B-X\	_ _	.	16r	16r	.	.	.	.	.	.	.
.	.	.	16c/LL	16e/LL	.	.	.	.	.	.	.
8r	.	.	16c/	16e/	.	.	.	16dd\LL	mi-	.	.
.	.	.	16c/JJ	16e/JJ	.	.	.	16cc\JJ	.	.	.
=45	=45	=45	=45	=45	=45	=45	=45	=45	=45	=45	=45
8A\	.	.	16r	16r	2ryy	2ryy	2ryy	4.cc\	-ſe-	2ryy	2ryy
.	.	.	16c/LL	16e/LL	.	.	.	.	.	.	.
8r	.	.	16c/	16e/	.	.	.	.	.	.	.
.	.	.	16c/JJ	16e/JJ	.	.	.	.	.	.	.
!	!	!	!LO:LB:g=original	!	!	!	!	!	!	!	!
=-	=-	=-	=-	=-	=-	=-	=-	=-	=-	=-	=-
8G\	.	.	16r	16r	.	.	.	.	.	.	.
.	.	.	16c/LL	16e/LL	.	.	.	.	.	.	.
8r	.	.	16c/	16e/	.	.	.	16dd\LL	-re	.	.
.	.	.	16c/JJ	16e/JJ	.	.	.	16cc\JJ	.	.	.
!LO:LB:g=original	!	!	!	!	!	!	!	!LO:LB:g=original	!	!	!
=46	=46	=46	=46	=46	=46	=46	=46	=46	=46	=46	=46
8F#X\	.	.	16r	16r	2ryy	2ryy	2ryy	4.cc\	cor-	2ryy	2ryy
.	.	.	16c/LL	16e-X/LL	.	.	.	.	.	.	.
8r	.	.	16c/	16e-/	.	.	.	.	.	.	.
.	.	.	16c/JJ	16e-/JJ	.	.	.	.	.	.	.
8F#\	.	.	16r	16r	.	.	.	.	.	.	.
.	.	.	16c/LL	16e-/LL	.	.	.	.	.	.	.
8r	.	.	16c/	16e-/	.	.	.	32dd\LLL	.	.	.
.	.	.	.	.	.	.	.	32ee-X\JJJ	.	.	.
!	!	!	!	!	!	!	!	!LO:N:vis=16	!	!	!
.	.	.	16c/JJ	16e-/JJ	.	.	.	32dd\	-di-	.	.
!	!	!	!	!	!	!	!	!LO:N:vis=16	!	!	!
.	.	.	.	.	.	.	.	32cc\	-a	.	.
=47	=47	=47	=47	=47	=47	=47	=47	=47	=47	=47	=47
8G\	-	.	16r	16r	2ryy	2ryy	2ryy	16cc\LL	e-	2ryy	2ryy
.	.	.	16B-X/LL	16d/LL	.	.	.	16b-X\JJ	.	.	.
8r	.	.	16B-/	16d/	.	.	.	8b-\	-jus	.	.
.	.	.	16B-/JJ	16d/JJ	.	.	.	.	.	.	.
4r	.	.	16B-/LL	16d/LL	.	.	.	4r	.	.	.
.	.	.	16A/	16c/	.	.	.	.	.	.	.
.	.	.	16B-/	16d/	.	.	.	.	.	.	.
.	.	.	16c/JJ	16e/JJ	.	.	.	.	.	.	.
=48	=48	=48	=48	=48	=48	=48	=48	=48	=48	=48	=48
8B-\	_ _	.	16r	16r	2ryy	2ryy	2ryy	4.b-\	et	2ryy	2ryy
.	.	.	16B-/LL	16d/LL	.	.	.	.	.	.	.
8r	.	.	16B-/	16d/	.	.	.	.	.	.	.
.	.	.	16B-/JJ	16d/JJ	.	.	.	.	.	.	.
8A\	.	.	16r	16r	.	.	.	.	.	.	.
.	.	.	16B-/LL	16d/LL	.	.	.	.	.	.	.
8r	.	.	16B-/	16d/	.	.	.	16cc\LL	mi-	.	.
.	.	.	16B-/JJ	16d/JJ	.	.	.	16b-\JJ	.	.	.
=49	=49	=49	=49	=49	=49	=49	=49	=49	=49	=49	=49
8G\	.	.	16r	16r	2ryy	2ryy	2ryy	4.b-\	-ſe-	2ryy	2ryy
.	.	.	16B-/LL	16d/LL	.	.	.	.	.	.	.
8r	.	.	16B-/	16d/	.	.	.	.	.	.	.
.	.	.	16B-/JJ	16d/JJ	.	.	.	.	.	.	.
8Fn\	.	.	16r	16r	.	.	.	.	.	.	.
.	.	.	16B-/LL	16d/LL	.	.	.	.	.	.	.
8r	.	.	16B-/	16d/	.	.	.	16cc\LL	-ri	.	.
.	.	.	16B-/JJ	16d/JJ	.	.	.	16b-\JJ	.	.	.
!	!	!	!LO:LB:g=original	!	!	!	!	!	!	!	!
=50	=50	=50	=50	=50	=50	=50	=50	=50	=50	=50	=50
8E\	.	.	16r	16r	2ryy	2ryy	2ryy	4.b-\	cor-	2ryy	2ryy
.	.	.	16B-/LL	16d/LL	.	.	.	.	.	.	.
8r	.	.	16B-/	16d/	.	.	.	.	.	.	.
.	.	.	16B-/JJ	16d/JJ	.	.	.	.	.	.	.
8E\	.	.	16r	16r	.	.	.	.	.	.	.
.	.	.	16B-/LL	16d/LL	.	.	.	.	.	.	.
8r	.	.	16B-/	16d/	.	.	.	32cc\LLL	.	.	.
.	.	.	.	.	.	.	.	32dd\JJJ	.	.	.
!	!	!	!	!	!	!	!	!LO:N:vis=16	!	!	!
.	.	.	16B-/JJ	16d/JJ	.	.	.	32cc\	-di-	.	.
!	!	!	!	!	!	!	!	!LO:N:vis=16	!	!	!
.	.	.	.	.	.	.	.	32b-\	-a	.	.
!	!	!	!	!LO:LB:g=original	!	!	!	!LO:LB:g=original	!	!	!
=51	=51	=51	=51	=51	=51	=51	=51	=51	=51	=51	=51
8F\	3	.	16r	16r	2ryy	2ryy	2ryy	16b-\LL	e-	2ryy	2ryy
.	.	.	16A/LL	16c/LL	.	.	.	16a\JJ	.	.	.
8r	.	.	16A/	16c/	.	.	.	8a\	-jus	.	.
.	.	.	16A/JJ	16c/JJ	.	.	.	.	.	.	.
4r	.	.	32A/LLL	32c/LLL	.	.	.	4r	.	.	.
.	.	.	32B-/	32d/	.	.	.	.	.	.	.
.	.	.	32c/	32e/	.	.	.	.	.	.	.
.	.	.	32d/JJJ	32f/JJJ	.	.	.	.	.	.	.
.	.	.	32e/LLL	32g/LLL	.	.	.	.	.	.	.
.	.	.	32f/	32a/	.	.	.	.	.	.	.
.	.	.	32g/	32b-/	.	.	.	.	.	.	.
.	.	.	32e/JJJ	32g/JJJ	.	.	.	.	.	.	.
=52	=52	=52	=52	=52	=52	=52	=52	=52	=52	=52	=52
8F\	.	.	16r	16a/LL	2ryy	2ryy	2ryy	4.cc\	a	2ryy	2ryy
.	.	.	16f/LL	16a/	.	.	.	.	.	.	.
8r	.	.	16f/	16a/	.	.	.	.	.	.	.
.	.	.	16f/JJ	16a/JJ	.	.	.	.	.	.	.
8F\	.	.	16r	16r	.	.	.	.	.	.	.
.	.	.	16f/LL	16a/LL	.	.	.	.	.	.	.
8r	.	.	16f/	16a/	.	.	.	8cc\	pro-	.	.
.	.	.	16f/JJ	16a/JJ	.	.	.	.	.	.	.
=53	=53	=53	=53	=53	=53	=53	=53	=53	=53	=53	=53
8E\	6\_ 3_	.	16r	16r	2ryy	2ryy	2ryy	16cc#X\	-ge-	2ryy	2ryy
.	.	.	16A/LL	16g/LL	.	.	.	16cc#\	-ni-	.	.
8r	.	.	16A/	16g/	.	.	.	8cc#\	-o	.	.
.	.	.	16A/JJ	16g/JJ	.	.	.	.	.	.	.
8F\	x x	.	16r	16r	.	.	.	4r	.	.	.
.	.	.	16A/LL	16g/LL	.	.	.	.	.	.	.
8r	.	.	16A/	16g/	.	.	.	.	.	.	.
.	.	.	16A/JJ	16g/JJ	.	.	.	.	.	.	.
!LO:LB:g=original	!	!	!LO:LB:g=original	!	!	!	!	!	!	!	!
=54	=54	=54	=54	=54	=54	=54	=54	=54	=54	=54	=54
8D\	3	.	16r	16r	2ryy	2ryy	2ryy	4dd\	in	2ryy	2ryy
.	.	.	16A/LL	16f/LL	.	.	.	.	.	.	.
8r	.	.	16A/	16f/	.	.	.	.	.	.	.
.	.	.	16A/JJ	16f/JJ	.	.	.	.	.	.	.
8d\	_	.	16r	16r	.	.	.	16dd\LL	.	.	.
.	.	.	16A/LL	16f/LL	.	.	.	16ee\JJ	.	.	.
8r	.	.	16A/	16f/	.	.	.	16ff\LL	pro-	.	.
.	.	.	16A/JJ	16f/JJ	.	.	.	16dd\JJ	.	.	.
=55	=55	=55	=55	=55	=55	=55	=55	=55	=55	=55	=55
8c#X\	6	.	16r	16r	2ryy	2ryy	2ryy	16ee\	-ge-	2ryy	2ryy
.	.	.	16A/LL	16g/LL	.	.	.	16ee\	-ni-	.	.
8r	.	.	16A/	16g/	.	.	.	8ee\	-es	.	.
.	.	.	16A/JJ	16g/JJ	.	.	.	.	.	.	.
8c#\	_	.	16r	16r	.	.	.	4r	.	.	.
.	.	.	16A/LL	16g/LL	.	.	.	.	.	.	.
8r	x	.	16A/	16g/	.	.	.	.	.	.	.
.	.	.	16A/JJ	16g/JJ	.	.	.	.	.	.	.
!	!	!	!	!	!	!	!	!LO:LB:g=original	!	!	!
=56	=56	=56	=56	=56	=56	=56	=56	=56	=56	=56	=56
8d\	.	.	16r	16r	2ryy	2ryy	2ryy	4.ff\	a	2ryy	2ryy
.	.	.	16d/LL	16f/LL	.	.	.	.	.	.	.
8r	.	.	16d/	16f/	.	.	.	.	.	.	.
.	.	.	16d/JJ	16f/JJ	.	.	.	.	.	.	.
8G#X\	7	.	16r	16r	.	.	.	.	.	.	.
.	.	.	16G/LL 16d	16f/LL	.	.	.	.	.	.	.
8r	.	.	16G/ 16d	16f/	.	.	.	16ee\LL	pro	.	.
.	.	.	16G/JJ 16d	16f/JJ	.	.	.	16dd\JJ	.	.	.
=57	=57	=57	=57	=57	=57	=57	=57	=57	=57	=57	=57
8A\	#	.	16r	16r	2ryy	2ryy	2ryy	16dd\	ge-	2ryy	2ryy
.	.	.	16c#X/LL	16e/LL	.	.	.	16cc#X\	-ni-	.	.
8r	.	.	16c#/	16e/	.	.	.	8cc#\	-e	.	.
.	.	.	16c#/JJ	16e/JJ	.	.	.	.	.	.	.
!	!	!	!	!LO:LB:g=original	!	!	!	!	!	!	!
=-	=-	=-	=-	=-	=-	=-	=-	=-	=-	=-	=-
8c#X\	6	.	16r	16r	.	.	.	8ee\	in	.	.
.	.	.	16c#/LL	16a/LL	.	.	.	.	.	.	.
8r	.	.	16c#/	16a/	.	.	.	8ee\	pro-	.	.
.	.	.	16c#/JJ	16a/JJ	.	.	.	.	.	.	.
!	!	!	!LO:LB:g=original	!	!	!	!	!	!	!	!
=58	=58	=58	=58	=58	=58	=58	=58	=58	=58	=58	=58
8d\	3	.	16r	16r	2ryy	2ryy	2ryy	4.ff\	-ge-	2ryy	2ryy
.	.	.	16d/LL	16f/LL	.	.	.	.	.	.	.
8r	.	.	16d/	16f/	.	.	.	.	.	.	.
.	.	.	16d/JJ	16f/JJ	.	.	.	.	.	.	.
8G#X\	7	.	16r	16r	.	.	.	.	.	.	.
.	.	.	16G/LL 16d	16f/LL	.	.	.	.	.	.	.
8r	.	.	16G/ 16d	16f/	.	.	.	16ee\LL	-ni-	.	.
.	.	.	16G/JJ 16d	16f/JJ	.	.	.	16dd\JJ	.	.	.
=59	=59	=59	=59	=59	=59	=59	=59	=59	=59	=59	=59
(>16A\LL	.	.	16c#X/LL	(<16e/LL	2ryy	2ryy	2ryy	4cc#X\	-es	2ryy	2ryy
16G#X\	.	.	16g#X/	16g#X/	.	.	.	.	.	.	.
16A\	.	.	16a/	16a/	.	.	.	.	.	.	.
16G#\JJ	.	.	16g#/JJ	16g#/JJ	.	.	.	.	.	.	.
16A\LL	.	.	16a/LL	16a/LL	.	.	.	8r	.	.	.
16G#\	.	.	16g#X/	16g#/	.	.	.	.	.	.	.
16A\	.	.	16a/	16a/	.	.	.	8ee\	ti-	.	.
16G#\JJ)	.	.	16g#/JJ	16g#/JJ)	.	.	.	.	.	.	.
=60	=60	=60	=60	=60	=60	=60	=60	=60	=60	=60	=60
(>16A\LL	.	.	16a/LL	(<16a/LL	2ryy	2ryy	2ryy	16.ee\	-men-	2ryy	2ryy
16G#X\	.	.	16g#X/	16g#X/	.	.	.	.	.	.	.
.	.	.	.	.	.	.	.	32ee\	-ti-	.	.
16A\	.	.	16a/	16a/	.	.	.	8ee\	-buſ	.	.
16G#\JJ	.	.	16g#/JJ	16g#/JJ	.	.	.	.	.	.	.
*	*	*	*	*rep	*	*	*	*	*	*	*
16A\LL	.	.	16a/LL	16a/LL	.	.	.	8r	.	.	.
16G#\	.	.	16g#/	16g#/	.	.	.	.	.	.	.
16A\)	.	.	16a/	16a/	.	.	.	8ee\	ti-	.	.
16G#\JJ	.	.	16g#/JJ	16g#/JJ)	.	.	.	.	.	.	.
*	*	*	*	*Xrep	*	*	*	*	*	*	*
!LO:LB:g=original	!	!	!	!	!	!	!	!LO:LB:g=original	!	!	!
=61	=61	=61	=61	=61	=61	=61	=61	=61	=61	=61	=61
*	*	*	*rep	*	*	*	*	*	*	*	*
(>16A\LL	.	.	16a/LL	(<16a/LL	2ryy	2ryy	2ryy	16.ee\	-men-	2ryy	2ryy
16G#X\	.	.	16g#X/	16g#X/	.	.	.	.	.	.	.
.	.	.	.	.	.	.	.	32ee\	-ti-	.	.
16A\	.	.	16a/	16a/	.	.	.	8ee\	-buſ	.	.
16G#\JJ	.	.	16g#/JJ	16g#/JJ	.	.	.	.	.	.	.
*	*	*	*Xrep	*	*	*	*	*	*	*	*
*	*	*	*rep	*rep	*	*	*	*	*	*	*
16A\LL	.	.	16a/LL	16a/LL	.	.	.	8r	.	.	.
16G#\	.	.	16g#/	16g#/	.	.	.	.	.	.	.
16A\	.	.	16a/	16a/	.	.	.	8ee\	ti-	.	.
16G#\JJ)	.	.	16g#/JJ	16g#/JJ)	.	.	.	.	.	.	.
*	*	*	*Xrep	*Xrep	*	*	*	*	*	*	*
=62	=62	=62	=62	=62	=62	=62	=62	=62	=62	=62	=62
*	*	*	*rep	*	*	*	*	*	*	*	*
(>16A\LL	.	.	16a/LL	(<16a/LL	2ryy	2ryy	2ryy	8ee\	-men-	2ryy	2ryy
16G#X\	.	.	16g#X/	16g#X/	.	.	.	.	.	.	.
16A\	.	.	16a/	16a/	.	.	.	16ee\	-ti-	.	.
16G#\JJ	.	.	16g#/JJ	16g#/JJ	.	.	.	16ee\	-buſ	.	.
*	*	*	*Xrep	*	*	*	*	*	*	*	*
*	*	*	*rep	*rep	*	*	*	*	*	*	*
16A\LL	.	.	16a/LL	16a/LL	.	.	.	4ee\	e-	.	.
16G#\	.	.	16g#/	16g#/	.	.	.	.	.	.	.
16A\	.	.	16a/	16a/	.	.	.	.	.	.	.
16G#\JJ)	.	.	16g#/JJ	16g#/JJ)	.	.	.	.	.	.	.
*	*	*	*Xrep	*Xrep	*	*	*	*	*	*	*
=63	=63	=63	=63	=63	=63	=63	=63	=63	=63	=63	=63
*	*	*	*rep	*	*	*	*	*	*	*	*
(>16A\LL	.	.	16a/LL	(<16a/LL	2ryy	2ryy	2ryy	4ee\	-ium	2ryy	2ryy
16G#X\	.	.	16g#X/	16g#X/	.	.	.	.	.	.	.
16A\	.	.	16a/	16a/	.	.	.	.	.	.	.
16G#\JJ	.	.	16g#/JJ	16g#/JJ	.	.	.	.	.	.	.
*	*	*	*Xrep	*	*	*	*	*	*	*	*
*	*	*	*rep	*rep	*	*	*	*	*	*	*
16A\LL	.	.	16a/LL	16a/LL	.	.	.	4r	.	.	.
16G#\	.	.	16g#/	16g#/	.	.	.	.	.	.	.
16A\	.	.	16a/	16a/	.	.	.	.	.	.	.
16G#\JJ)	.	.	16g#/JJ	16g#/JJ)	.	.	.	.	.	.	.
*	*	*	*Xrep	*Xrep	*	*	*	*	*	*	*
=64	=64	=64	=64	=64	=64	=64	=64	=64	=64	=64	=64
4A;>\	#	.	4a;>/	4a;;/	2ryy	2ryy	2ryy	2r;>	.	2ryy	2ryy
4r	.	.	4r	4r	.	.	.	.	.	.	.
!	!	!	!	!LO:LB:g=original	!	!	!	!	!	!	!
=65	=65	=65	=65	=65	=65	=65	=65	=65	=65	=65	=65
!	!	!	!	!	!	!	!	!LO:TX:a:t=2	!	!	!
8A\	#	.	16r	16r	2ryy	2ryy	2ryy	1r	.	2ryy	2ryy
.	.	.	16a/LL	16cc#X\LL	.	.	.	.	.	.	.
8r	.	.	16a/	16cc#\	.	.	.	.	.	.	.
.	.	.	16a/JJ	16cc#\JJ	.	.	.	.	.	.	.
8A\	.	.	16r	16r	.	.	.	.	.	.	.
.	.	.	16a/LL	16cc#\LL	.	.	.	.	.	.	.
8r	.	.	16a/	16cc#\	.	.	.	.	.	.	.
.	.	.	16a/JJ	16cc#\JJ	.	.	.	.	.	.	.
!	!	!	!LO:LB:g=original	!	!	!	!	!	!	!	!
=66	=66	=66	=66	=66	=66	=66	=66	=66	=66	=66	=66
8Gn\	5 3	.	16r	16r	2ryy	2ryy	2ryy	.	.	2ryy	2ryy
.	.	.	16b-\LL	16dd\LL	.	.	.	.	.	.	.
8r	.	.	16b-\	16dd\	.	.	.	.	.	.	.
.	.	.	16b-\JJ	16dd\JJ	.	.	.	.	.	.	.
8G\	6 3	.	16r	16r	.	.	.	.	.	.	.
.	.	.	16b-\LL	16ee'\LL	.	.	.	.	.	.	.
8r	.	.	16b-\	16ee'\	.	.	.	.	.	.	.
.	.	.	16b-\JJ	16ee'\JJ	.	.	.	.	.	.	.
=67	=67	=67	=67	=67	=67	=67	=67	=67	=67	=67	=67
8F\	8 4	.	16a/LL	16ff\LL	2ryy	2ryy	2ryy	8.ff\	Et	2ryy	2ryy
.	.	.	16a/	16ccn\	.	.	.	.	.	.	.
8r	.	.	16a/	16cc\	.	.	.	.	.	.	.
.	.	.	16a/JJ	16cc\JJ	.	.	.	16ff\	mi-	.	.
4r	.	.	8a/	8cc\	.	.	.	16ff\LL	-ſe-	.	.
.	.	.	.	.	.	.	.	16ccn\JJ	.	.	.
.	.	.	8r	8r	.	.	.	16ff\LL	-ri-	.	.
.	.	.	.	.	.	.	.	16aa\JJ	.	.	.
!	!	!	!	!	!	!	!	!LO:LB:g=original	!	!	!
=68	=68	=68	=68	=68	=68	=68	=68	=68	=68	=68	=68
8B-\	6	.	16r	16r	2ryy	2ryy	2ryy	16aa\	-cor-	2ryy	2ryy
.	.	.	16b-\LL	16dd\LL	.	.	.	16gg\	-di-	.	.
8r	.	.	16b-\	16dd\	.	.	.	4gg\	-a	.	.
.	.	.	16b-\JJ	16dd\JJ	.	.	.	.	.	.	.
4r	.	.	8b-\	8dd\	.	.	.	.	.	.	.
.	.	.	8r	8r	.	.	.	32gg\LLL	e-	.	.
.	.	.	.	.	.	.	.	32aa\JJJ	.	.	.
.	.	.	.	.	.	.	.	32gg\LLL	-jus	.	.
.	.	.	.	.	.	.	.	32ff\JJJ	.	.	.
!LO:LB:g=original	!	!	!	!	!	!	!	!	!	!	!
=69	=69	=69	=69	=69	=69	=69	=69	=69	=69	=69	=69
8c\	.	.	16r	16r	2ryy	2ryy	2ryy	16ff\LL	a	2ryy	2ryy
.	.	.	16c/LL 16g	16ee\LL	.	.	.	16ee\J	.	.	.
4r	.	.	16c/ 16g	16ee\	.	.	.	8.ee\J	.	.	.
.	.	.	16c/JJ 16g	16ee\JJ	.	.	.	.	.	.	.
.	.	.	8c/ 8g	8ee\	.	.	.	.	.	.	.
.	.	.	.	.	.	.	.	16cc\	.	.	.
8r	.	.	8r	8r	.	.	.	16ee\LL	pro-	.	.
.	.	.	.	.	.	.	.	16gg\JJ	.	.	.
=70	=70	=70	=70	=70	=70	=70	=70	=70	=70	=70	=70
8F\	.	.	16r	16r	2ryy	2ryy	2ryy	16gg\	-ge-	2ryy	2ryy
.	.	.	16c/LL 16a	16ff\LL	.	.	.	16ff\	-ni-	.	.
8r	.	.	16c/ 16a	16ff\	.	.	.	8ff\	-e	.	.
.	.	.	16c/JJ 16a	16ff\JJ	.	.	.	.	.	.	.
4r	.	.	8c/ 8a	8ff\	.	.	.	8r	.	.	.
.	.	.	8r	8r	.	.	.	32ff\LLL	a	.	.
.	.	.	.	.	.	.	.	32ee\JJJ	.	.	.
.	.	.	.	.	.	.	.	32ff\LLL	pro-	.	.
.	.	.	.	.	.	.	.	32gg\JJJ	.	.	.
!	!	!	!	!	!	!	!	!LO:LB:g=original	!	!	!
=71	=71	=71	=71	=71	=71	=71	=71	=71	=71	=71	=71
16r	.	.	16r	16r	2ryy	2ryy	2ryy	16aa\	-ge-	2ryy	2ryy
16A\LL	6 3	.	16cc\LL	16ff\LL	.	.	.	16ff\	-ni-	.	.
16A\	_ _	.	16cc\	16ff\	.	.	.	8ff\	-e	.	.
16A\JJ	.	.	16cc\JJ	16ff\JJ	.	.	.	.	.	.	.
8A\	x	.	8cc\	8ff\	.	.	.	16r	.	.	.
.	.	.	.	.	.	.	.	16ff\LL	in	.	.
8r	.	.	8r	8r	.	.	.	16gg\JJ	.	.	.
.	.	.	.	.	.	.	.	16aa\	pro-	.	.
!	!	!	!	!LO:LB:g=original	!	!	!	!	!	!	!
=72	=72	=72	=72	=72	=72	=72	=72	=72	=72	=72	=72
16r	.	.	16r	16r	2ryy	2ryy	2ryy	16bb-\	-ge-	2ryy	2ryy
16B-\LL	6 3	.	16dd\LL	16gg\LL	.	.	.	16gg\	-ni-	.	.
16B-\	_ _	.	16dd\	16gg\	.	.	.	8gg\	-es	.	.
16B-\JJ	.	.	16dd\JJ	16gg\JJ	.	.	.	.	.	.	.
8B-\	x	.	8dd\	8gg\	.	.	.	16r	.	.	.
.	.	.	.	.	.	.	.	16gg\	ti-	.	.
8r	.	.	8r	8r	.	.	.	32aa\LLL	-men-	.	.
.	.	.	.	.	.	.	.	32gg\	.	.	.
.	.	.	.	.	.	.	.	32ff\	.	.	.
.	.	.	.	.	.	.	.	32gg\JJJ	.	.	.
!	!	!	!LO:LB:g=original	!	!	!	!	!	!	!	!
=73	=73	=73	=73	=73	=73	=73	=73	=73	=73	=73	=73
16r	.	.	16r	16r	2ryy	2ryy	2ryy	4aa\	.	2ryy	2ryy
16c\LL	6 4	.	16a/LL	16ff\LL	.	.	.	.	.	.	.
16c\	_ _	.	16a/	16ff\	.	.	.	.	.	.	.
16c\JJ	.	.	16a/JJ	16ff\JJ	.	.	.	.	.	.	.
8c\	x	.	8a/	8ff\	.	.	.	32aa\LLL	.	.	.
.	.	.	.	.	.	.	.	32bb-\	.	.	.
.	.	.	.	.	.	.	.	32aa\	.	.	.
.	.	.	.	.	.	.	.	32gg\JJJ	.	.	.
8r	.	.	8r	8r	.	.	.	32ff\LLL	.	.	.
.	.	.	.	.	.	.	.	32ee\	.	.	.
.	.	.	.	.	.	.	.	32ff\	.	.	.
.	.	.	.	.	.	.	.	32gg\JJJ	.	.	.
!	!	!	!	!	!	!	!	!LO:LB:g=original	!	!	!
=74	=74	=74	=74	=74	=74	=74	=74	=74	=74	=74	=74
16r	.	.	16r	16r	2ryy	2ryy	2ryy	4aa\	.	2ryy	2ryy
16c\LL	6 4	.	16a/LL	16ff\LL	.	.	.	.	.	.	.
16c\	_ _	.	16a/	16ff\	.	.	.	.	.	.	.
16c\JJ	.	.	16a/JJ	16ff\JJ	.	.	.	.	.	.	.
8c\	x	.	8a/	8ff\	.	.	.	32aa\LLL	.	.	.
.	.	.	.	.	.	.	.	32bb-\	.	.	.
.	.	.	.	.	.	.	.	32aa\	.	.	.
.	.	.	.	.	.	.	.	32gg\JJJ	.	.	.
8r	.	.	8r	8r	.	.	.	32ff\LLL	.	.	.
.	.	.	.	.	.	.	.	32ee\	.	.	.
.	.	.	.	.	.	.	.	32ff\	.	.	.
.	.	.	.	.	.	.	.	32gg\JJJ	.	.	.
!LO:LB:g=original	!	!	!	!	!	!	!	!	!	!	!
=75	=75	=75	=75	=75	=75	=75	=75	=75	=75	=75	=75
8c\	6 4	.	8a/	8ff\	2ryy	2ryy	2ryy	32aa\LLL	.	2ryy	2ryy
.	.	.	.	.	.	.	.	32bb-\	.	.	.
.	.	.	.	.	.	.	.	32aa\	.	.	.
.	.	.	.	.	.	.	.	32gg\JJJ	.	.	.
8r	.	.	8r	8r	.	.	.	32ff\LLL	.	.	.
.	.	.	.	.	.	.	.	32ee\	.	.	.
.	.	.	.	.	.	.	.	32ff\	.	.	.
.	.	.	.	.	.	.	.	32gg\JJJ	.	.	.
8c\	_ _	.	8a/	8ff\	.	.	.	32aa\LLL	.	.	.
.	.	.	.	.	.	.	.	32bb-\	.	.	.
.	.	.	.	.	.	.	.	32aa\	.	.	.
.	.	.	.	.	.	.	.	32gg\JJJ	.	.	.
8r	x	.	8r	8r	.	.	.	32ff\LLL	.	.	.
.	.	.	.	.	.	.	.	32ee\	.	.	.
.	.	.	.	.	.	.	.	32ff\	.	.	.
.	.	.	.	.	.	.	.	32gg\JJJ	.	.	.
=76	=76	=76	=76	=76	=76	=76	=76	=76	=76	=76	=76
8c\	_ _	.	8a/	32ff\LLL	2ryy	2ryy	2ryy	32aa\LLL	.	2ryy	2ryy
.	.	.	.	32ee\	.	.	.	32gg\	.	.	.
.	.	.	.	32ff\	.	.	.	32aa\	.	.	.
.	.	.	.	32ee\JJJ	.	.	.	32gg\JJJ	.	.	.
*	*	*	*	*rep	*	*	*	*	*	*	*
8r	x	.	8r	32ff\LLL	.	.	.	32aa\LLL	.	.	.
.	.	.	.	32ee\	.	.	.	32gg\	.	.	.
.	.	.	.	32ff\	.	.	.	32aa\	.	.	.
.	.	.	.	32ee\JJJ	.	.	.	32gg\JJJ	.	.	.
*	*	*	*	*Xrep	*	*	*	*	*	*	*
!	!	!	!	!	!	!	!	!LO:LB:g=original	!	!	!
=-	=-	=-	=-	=-	=-	=-	=-	=-	=-	=-	=-
4r	.	.	4r	32ff\LLL	.	.	.	32aa\LLL	.	.	.
.	.	.	.	32ee\	.	.	.	32gg\	.	.	.
.	.	.	.	32dd\	.	.	.	32ff\	.	.	.
.	.	.	.	32cc\JJJ	.	.	.	32ee\JJJ	.	.	.
.	.	.	.	32b-/LLL	.	.	.	32dd\LLL	ti-	.	.
.	.	.	.	32a/	.	.	.	32cc\JJJ	.	.	.
.	.	.	.	32g/	.	.	.	32b-\LLL	-bus	.	.
.	.	.	.	32f/JJJ	.	.	.	32a\JJJ	.	.	.
=77	=77	=77	=77	=77	=77	=77	=77	=77	=77	=77	=77
*	*	*	*	*	*	*	*	*2\right	*	*	*
16c\LL	3	.	16B-/LL	2e/	2ryy	2ryy	2ryy	2g\	e-	2ryy	2ryy
16c\	.	.	16B-/	.	.	.	.	.	.	.	.
16c\	.	.	16B-/	.	.	.	.	.	.	.	.
16c\JJ	_	.	16B-/JJ	.	.	.	.	.	.	.	.
*	*	*	*tremolo	*	*	*	*	*	*	*	*
16C/LL	.	.	16B-/LL	.	.	.	.	.	.	.	.
16C/	.	.	16B-/	.	.	.	.	.	.	.	.
16C/	x	.	16B-/	.	.	.	.	.	.	.	.
16C/JJ	.	.	16B-/JJ	.	.	.	.	.	.	.	.
*	*	*	*Xtremolo	*	*	*	*	*	*	*	*
=78	=78	=78	=78	=78	=78	=78	=78	=78	=78	=78	=78
!	!	!LO:DY:a:t=for	!	!	!	!	!	!	!	!	!
8F\L	.	f	8A/L	8.f/L	2ryy	2ryy	2ryy	4a\	-um	2ryy	2ryy
8F\	.	.	16c/L	.	.	.	.	.	.	.	.
.	.	.	16f/JJ	16a/Jk	.	.	.	.	.	.	.
8F\	.	.	8a/L	16cc\LL	.	.	.	4r	.	.	.
.	.	.	.	16ff\	.	.	.	.	.	.	.
8F\J	.	.	8a/J	16aa\	.	.	.	.	.	.	.
.	.	.	.	16ff\JJ	.	.	.	.	.	.	.
=79	=79	=79	=79	=79	=79	=79	=79	=79	=79	=79	=79
8G\L	6 3	.	8b-\L	16ff\LL	2ryy	2ryy	2ryy	0r	.	2ryy	2ryy
.	.	.	.	16ee\JJ	.	.	.	.	.	.	.
8G\	_ _	.	16cc\L	4ee\	.	.	.	.	.	.	.
.	.	.	16b-\JJ	.	.	.	.	.	.	.	.
8G\	.	.	16cc\LL	.	.	.	.	.	.	.	.
.	.	.	16b-\	.	.	.	.	.	.	.	.
8F\J	3	.	16a\	8ff\	.	.	.	.	.	.	.
.	.	.	16cc\JJ	.	.	.	.	.	.	.	.
!	!	!	!	!LO:LB:g=original	!	!	!	!	!	!	!
=80	=80	=80	=80	=80	=80	=80	=80	=80	=80	=80	=80
8E\L	6 5	.	16b-\LL	16ff#X\LL	2ryy	2ryy	2ryy	.	.	2ryy	2ryy
.	.	.	16cc\	16gg\J	.	.	.	.	.	.	.
8E\	_ _	.	16b-\	8.gg\J	.	.	.	.	.	.	.
.	.	.	16cc\JJ	.	.	.	.	.	.	.	.
*	*	*	*rep	*	*	*	*	*	*	*	*
8E\	.	.	16b-\LL	.	.	.	.	.	.	.	.
.	.	.	16cc\	16aa\LL	.	.	.	.	.	.	.
8E\J	x	.	16b-\	16bb-\	.	.	.	.	.	.	.
.	.	.	16cc\JJ	16gg\JJ	.	.	.	.	.	.	.
*	*	*	*Xrep	*	*	*	*	*	*	*	*
!	!	!	!LO:PB:g=original	!	!	!	!	!	!	!	!
=81	=81	=81	=81	=81	=81	=81	=81	=81	=81	=81	=81
!LO:TX:a:t=P:problem=mixed beam	!	!	!	!	!	!	!	!	!	!	!
8F\L	.	.	16b-/LL	16gg\LL	2ryy	2ryy	2ryy	.	.	2ryy	2ryy
.	.	.	16a/J	16ff\J	.	.	.	.	.	.	.
8FF/J	.	.	8a/J	8ff\J	.	.	.	.	.	.	.
16F\LL	8 3	.	8.a/L	8.ff\L	.	.	.	.	.	.	.
16F\	_ _	.	.	.	.	.	.	.	.	.	.
16F\	.	.	.	.	.	.	.	.	.	.	.
16F\JJ	6 4	.	16b-/Jk	32ee\LL	.	.	.	.	.	.	.
.	.	.	.	32dd\JJJ	.	.	.	.	.	.	.
=82	=82	=82	=82	=82	=82	=82	=82	=82	=82	=82	=82
16F\LL	5 3	.	16b-/LL	16dd\LL	2ryy	2ryy	2ryy	.	.	2ryy	2ryy
16F\	_	.	16a/J	16cc\J	.	.	.	.	.	.	.
16F\	.	.	8a/J	8cc\J	.	.	.	.	.	.	.
16F\JJ	.	.	.	.	.	.	.	.	.	.	.
16F\LL	_ _	.	16a/LL	16ff\LL	.	.	.	.	.	.	.
16F\	.	.	32g/L	32ee\L	.	.	.	.	.	.	.
.	.	.	32a/JJJ	32ff\JJJ	.	.	.	.	.	.	.
16F\	.	.	32b-\LLL	32gg\LLL	.	.	.	.	.	.	.
.	.	.	32dd\	32ff\	.	.	.	.	.	.	.
16F\JJ	6 4	.	32cc\	32ee\	.	.	.	.	.	.	.
.	.	.	32b-\JJJ	32dd\JJJ	.	.	.	.	.	.	.
!LO:LB:g=original	!	!	!	!	!	!	!	!	!	!	!
=83	=83	=83	=83	=83	=83	=83	=83	=83	=83	=83	=83
16F\LL	5 3	.	16b-/LL	16dd\LL	2ryy	2ryy	2ryy	1r	.	2ryy	2ryy
16F\	_ _	.	16a/J	16cc\J	.	.	.	.	.	.	.
16F\	.	.	8a/J	8cc\J	.	.	.	.	.	.	.
16F\JJ	x	.	.	.	.	.	.	.	.	.	.
16F\LL	.	.	8.a/L	8.ff\L	.	.	.	.	.	.	.
16F\	.	.	.	.	.	.	.	.	.	.	.
16F\	.	.	.	.	.	.	.	.	.	.	.
16F\JJ	.	.	16cc/Jk	16ee-X\Jk	.	.	.	.	.	.	.
=84	=84	=84	=84	=84	=84	=84	=84	=84	=84	=84	=84
8B-\	.	.	16b-/LL	16dd\LL	2ryy	2ryy	2ryy	.	.	2ryy	2ryy
.	.	.	16a/	16cc#X\	.	.	.	.	.	.	.
8r	.	.	16b-/	16dd\	.	.	.	.	.	.	.
.	.	.	16g/JJ	16b-\JJ	.	.	.	.	.	.	.
!LO:TX:a:t=P:problem=mixed beam	!	!	!	!	!	!	!	!	!	!	!
8c\L	6 4	.	16f/LL	16a/LL	.	.	.	.	.	.	.
.	.	.	16a/	16ccn/	.	.	.	.	.	.	.
8C/J	5 3	.	16c/	16e/	.	.	.	.	.	.	.
.	.	.	16B-/JJ	16g/JJ	.	.	.	.	.	.	.
=85	=85	=85	=85	=85	=85	=85	=85	=85	=85	=85	=85
!LO:TX:a:t=P:problem=mixed beam	!	!	!	!	!	!	!	!	!	!	!
8F\L	9 4:	.	8.B-/L	8.g/L	2ryy	2ryy	2ryy	2r	.	2ryy	2ryy
8FF/	.	.	.	.	.	.	.	.	.	.	.
.	.	.	32c/LL	32a/LL	.	.	.	.	.	.	.
.	.	.	32B-/JJJ	32g/JJJ	.	.	.	.	.	.	.
8F\J	8 3	.	8A/	8f/	.	.	.	.	.	.	.
8r	.	.	8r	8r	.	.	.	.	.	.	.
!LO:PB:g=original	!	!	!LO:LB:g=original	!LO:LB:g=original	!	!	!	!LO:PB:g=original	!	!	!
==;	==	==	==;	==;	==	==	==	==;	==	==	==
*-	*-	*-	*-	*-	*-	*-	*-	*-	*-	*-	*-
!!!system-decoration: [(s1,s2)][(s3,s4,s5,s6)][(s7,s8)]s9
!!!RDF**kern: < = below
!!!RDF**kern: > = above
!!!ENC: Berenika Jozajtis
!!!END: 2021-11-28
!!!ENC: Marta Chmielewska
!!!END: 2021-12-14
